X:1
T:Title
%%score { 1 | ( 2 3 ) }
L:1/8
Q:1/4=100
M:4/4
K:Bb
V:1 treble nm="Grand Piano"
V:2 bass 
V:3 bass 
V:1
 [DB]2 [B,D]>[CE] [DF]2 [DB]2 | BcGA [DB]2 [DF]2 | d2 d2 d>c [Ge][CEc] | [EG]2 A>c [B,DB]4 | %4
w: J.~E.~Hall * * * *||||
 [DB]2 [B,D]>[CE] [DF]2 [DB]2 | BcGA [DB]2 [DF]2 | [Fd]2 [DF]2 [EG]B .[EGB]2 | %7
w: |||
 [DFB]2 [CEA]2 [DB]4 |[M:6/8] [DF]2 [DF] FGA | [DB]2 [Ec] [Fd]2 [DB] | d2 c c3 | e2 [Fd] [Fd]3 | %12
w: |||||
 [DF]2 [DF] FGA | [DB]2 [Ec] [Fd]2 [Fe] | [Ff]2 [Gd] [Ge][Fd][Gc] | [FB]2 [EA] [DB]3 |] %16
w: ||||
V:2
 [B,,F,]2 [B,,F,]2 [B,,B,]2 [B,,F,]2 | [F,E]2 [F,CE]2 [B,,B,]2 [B,,B,]2 | %2
 [B,F]2 [A,C^F]2 [G,B,G]2[K:bass] .[C,B,]2 | z2 C2 z4 | [B,,F,]2 [B,,F,]2 [B,,B,]2 [B,,F,]2 | %5
 [F,E]2 [F,CE]2 [B,,B,]2 [B,,B,]2 | [B,,F,]2 [B,,B,]2 z G z[K:treble] c | F,2 F,2 [B,,B,]4 | %8
[M:6/8] z3 .A,3 | [B,,B,]2 [B,,F,] [B,,B,]2 [B,,B,] | [F,B,F]2 [F,A,F] [F,A,F]3 | %11
 [F,CF]2 [B,,B,] [B,,B,]3 | z3 .A,3 | [B,,B,]2 [B,,F,] [B,,B,]2 [C,A,] | %14
 [D,B,]2 [G,=B,] [C,C][D,B,][E,C] | [F,D]2 [F,C] [B,,B,]3 |] %16
V:3
 x8 | x8 | x6[K:bass] x2 | [C,C]2 [F,E]->[F,A,E] B,,4 | x8 | x8 | z4 [E,B,]2 C,2[K:treble] | x8 | %8
[M:6/8] [B,,B,]2 [B,,B,] [F,E]-[F,B,E][F,CE] | x6 | x6 | x6 | %12
 [B,,B,]2 [B,,B,] [F,E]-[F,B,E][F,CE] | x6 | x6 | x6 |] %16

